X:1
T:More Abundantly
T:More Abundantly
T:Charles Hutchinson Gabriel
T:Charles Hutchinson Gabriel. 1910
T:Public Domain Courtesy of the Cyber Hymnal™
T:Public Domain Courtesy of the Cyber Hymnal™
C:Charles Hutchinson Gabriel
Z:Public Domain
Z:Courtesy of the Cyber Hymnal™
%%score ( 1 2 ) ( 3 4 )
L:1/8
Q:1/4=100
M:4/4
K:Eb
V:1 treble 
V:2 treble 
V:3 bass 
V:4 bass 
V:1
 [GB][GB] | [Ge]2 [Ad][Ac] [GB]2 E[DF] | [EG]2 [EG]>[FA] [GB]2 [GB][Ge] | %3
w: 1.~There’s a|mess- age that comes to the|soul in its need, ’Tis a|
w: 2.~’Tis a|mess- age that tells of an|in- fin- ite love, That could|
w: 3.~’Tis a|mess- age of glad- ness the|world can- not give, And its|
 [Ad] [Ad]2 [Ac] [DF] [DF]2 [EG] | [FA][Ac][GB][FA] [EG]3 [GB] | [Ge]2 [Ad][Ac] [GB]2 [EB][F=B] | %6
w: won- der- ful mess- age, and|all the world may read. ’Twas|spok- en for him who- so-|
w: bring One to earth from His|throne of light a- bove, To|save us from sin, and His|
w: full- ness of mean- ing we|free- ly may re- ceive: ’Twas|giv- en for him who on|
 [=Ec][GB][FA][EG] F2 [^Fd][Fc] | [GB][FB]/[FB]/ [EB][AB] [Ge]3 [GB] | [GB][FA][EG][DF] E4 |: %9
w: e’er will give it heed— “I am|come that they might have life, and|more a- bun- dant- ly.”|
w: won- drous grace to prove— “I am|come that they might have life, and|more a- bun- dant- ly.”|
w: Je- sus will be- lieve— “I am|come that they might have life, and|more a- bun- dant- ly.”|
"^Refrain" [Ge]3 [Af] [Ge][Ac] [GB]2 | [GB]3 [Ac] [GB][EG]E[EG] |1 [DF]2 [FB][Fc] [Fd]4 | %12
w: More a- bun- dant- ly,|more a- bun- dant- ly, That|they might have life|
w: |||
w: |||
 eed[Ec] B4 :|2 [EF]2 [^Fd][Fc] [GB]2 [Fe]2 || [GB][FA][EG][DF] E2 |] %15
w: more a- bun- dant- ly;|they might have life, and|more a- bun- dant- ly.|
w: |||
w: |||
V:2
 x2 | x6 E x | x8 | x8 | x8 | x8 | x4 ^F2 x2 | x8 | x4 E4 |: x8 | x6 E x |1 x8 | F3 (DDEA) x :|2 %13
 x8 || x4 E2 |] %15
V:3
 [E,E][E,E] | [E,B,]2 [E,C][E,D] [E,E]2 [G,B,]B, | [E,B,]2 [E,B,]>[E,B,] [E,E]2 [E,E][E,B,] | %3
w: ~ ~|~ ~ ~ ~ ~ ~|~ ~ ~ ~ ~ ~|
 [F,B,] [F,B,]2 [F,B,] B, B,2 B, | [B,,B,][B,,B,][B,,B,][B,,B,] [E,B,]3 [E,E] | %5
w: ~ ~ ~ ~ ~ ~|~ ~ ~ ~ ~ ~|
 [E,B,]2 [E,C][E,D] [E,E]2 [E,G,][D,G,] | [C,G,][=E,C][F,C][G,C] [A,C]2 [=A,C][A,=E] | %7
w: ~ ~ ~ ~ ~ ~|~ ~ ~ ~ ~ ~ ~|
 [B,E][A,D]/[A,D]/ [G,E][F,D] [E,B,]3 [E,B,] | [B,,B,][B,,B,][B,,A,][B,,A,] [E,G,]4 |: %9
w: ~ ~ ~ ~ ~ ~ ~|~ ~ ~ ~ ~|
 [E,B,][E,B,][E,B,][E,B,] [E,E]4 | [E,E][E,E][E,E][E,E] [E,E][E,B,][E,G,][E,G,] |1 %11
w: More a- bun- dant- ly,|more, and more a- bun- dant- ly, ~|
 [B,,B,]2 [D,B,][F,=A,] B,4 | (B,B,B,)[F,=A,] B,4 :|2 %13
w: ~ ~ ~ ~|more * * a- bun-|
 [A,,E]2 [=A,,E][A,,E] [B,,E]2 !fermata![_C,=A,]2 || [B,,B,][B,,B,][B,,B,][B,,B,] [E,G,]2 |] %15
w: dant- ly * * *||
V:4
 x2 | x7 B, | x8 | x4 B, B,2 B, | x8 | x8 | x8 | x8 | x8 |: x8 | x8 |1 x4 B,4 | %12
 F,3 B, _A, (G,F,) x :|2 x8 || x6 |] %15

